X: 35147
T: Rond De Saint Vincent
R: polka
M: 2/4
K: Aminor
|:AA GA/B/|c/A/B AE|AA GA/B/|1 c/A/B A2:|2 c/A/B AA/B/||
|:cc AA/B/|c/B/A/G/ EE|AA G/E/A/B/|1 c/A/B AA/B/:|2 c/A/B A2||

